X: 2
T: The Night We Had The Goats
R: reel
M: 4/4
L: 1/8
K: Gmaj
G3 B d2 (3Bcd|e2fg dBBe|dG G/G/G dG (3Bcd|1 egdB A2 AB:|2 egdB A2 (3Bcd| 
|:e2fg dBBd|e2fg B2fg|afge dBBd|1 (3efg dB A2 (3Bcd:|2 (3efg dB A2 AB||



